docs/public/img/providers/linkedin.svg

<?xml version="1.0" encoding="UTF-8"?>
<svg width="256px" height="256px" viewBox="0 0 256 256" version="1.1" xmlns="http://www.w3.org/2000/svg" xmlns:xlink="http://www.w3.org/1999/xlink" preserveAspectRatio="xMidYMid">
    <g>
        <path d="M218.123122,218.127392 L180.191928,218.127392 L180.191928,158.724263 C180.191928,144.559023 179.939053,126.323993 160.463756,126.323993 C140.707926,126.323993 137.685284,141.757585 137.685284,157.692986 L137.685284,218.123441 L99.7540894,218.123441 L99.7540894,95.9665207 L136.168036,95.9665207 L136.168036,112.660562 L136.677736,112.660562 C144.102746,99.9650027 157.908637,92.3824528 172.605689,92.9280076 C211.050535,92.9280076 218.138927,118.216023 218.138927,151.114151 L218.123122,218.127392 Z M56.9550587,79.2685282 C44.7981969,79.2707099 34.9413443,69.4171797 34.9391618,57.260052 C34.93698,45.1029244 44.7902948,35.2458562 56.9471566,35.2436736 C69.1040185,35.2414916 78.9608713,45.0950217 78.963054,57.2521493 C78.9641017,63.090208 76.6459976,68.6895714 72.5186979,72.8184433 C68.3913982,76.9473153 62.7929898,79.26748 56.9550587,79.2685282 M75.9206558,218.127392 L37.94995,218.127392 L37.94995,95.9665207 L75.9206558,95.9665207 L75.9206558,218.127392 Z M237.033403,0.0182577091 L18.8895249,0.0182577091 C8.57959469,-0.0980923971 0.124827038,8.16056231 -0.001,18.4706066 L-0.001,237.524091 C0.120519052,247.839103 8.57460631,256.105934 18.8895249,255.9977 L237.033403,255.9977 C247.368728,256.125818 255.855922,247.859464 255.999,237.524091 L255.999,18.4548016 C255.851624,8.12438979 247.363742,-0.133792868 237.033403,0.000790807055" fill="#0A66C2"></path>
    </g>
</svg>

<svg preserveAspectRatio="xMidYMid" viewBox="0 0 256 256"><path fill="#0A66C2" d="M218.1 218.1h-38v-59.4c0-14.1-.2-32.4-19.6-32.4-19.8 0-22.8 15.5-22.8 31.4V218h-38V96h36.5v16.7h.5a40 40 0 0 1 36-19.8c38.4 0 45.4 25.3 45.4 58.2v67ZM57 79.3a22 22 0 1 1 0-44 22 22 0 0 1 0 44M76 218H38V96h38v122ZM237 .1H19A18.7 18.7 0 0 0 0 18.4v219A18.7 18.7 0 0 0 18.9 256H237c10.4.1 18.9-8.1 19-18.5v-219A18.7 18.7 0 0 0 237 0"/></svg>
